public/images/partners/cow-footer.svg

<svg xmlns="http://www.w3.org/2000/svg" width="1440" height="203" fill="none"><path fill="#408A13" d="M0 85h156.867a90.003 90.003 0 0 1 61.16 23.973L258 146H0V85ZM73 65l7 20H66l7-20ZM126 49.318 138.6 85h-25.2L126 49.32Z"/><path fill="#408A13" d="m108 42 12.6 35.68H95.4L108 42ZM106.201 77.682h3.6v7.319h-3.6z"/><path fill="#6FC025" d="M0 146h494.026a89.996 89.996 0 0 1 55.92 19.481L596 202H0v-56Z"/><path fill="#408A13" d="M905.133 199.483V191L913 202h-20v-11l6.067 8.483V191l6.066 8.483ZM720.867 191 713 202h13.933v-11l-6.067 8.483.001-8.483Z"/><path fill="#9BD955" d="M0 174h127.756a45.003 45.003 0 0 1 36.456 18.619L171 202H0v-28Z"/><path fill="#6FC025" d="m400.5 126 7.5 20h-15l7.5-20Z"/><path fill="#408A13" d="m1140 183 7 19h-14l7-19Z"/><path fill="#6FC025" d="m156.599 110.732-12.6 35.266h25.2l-12.6-35.266Z"/><path fill="#6FC025" d="m174.599 103.5-12.6 35.266h25.2l-12.6-35.266ZM176.4 138.766h-3.6V146h3.6z"/><path fill="#408A13" d="M1325.7 139H1440v63h-114.3v-63Z"/><path fill="#9BD955" d="m1285.2 166 40.5-27 40.5 27v36h-81v-36Z"/><path fill="#408A13" d="M1301.4 178.6h48.6V202h-48.6v-23.4Z"/><path fill="#9BD955" d="M1230.3 134.5c0-12.426 10.07-22.5 22.5-22.5s22.5 10.074 22.5 22.5V202h-45v-67.5Z"/><path fill="#408A13" d="m1154.7 160-12.6 34.851h25.2L1154.7 160ZM1156.5 194.852h-3.6v7.149h3.6zM1104.3 171.699l-8.1 23.171h16.2l-8.1-23.171ZM1106.1 194.871h-3.6v7.13h3.6z"/><path fill="#6FC025" d="M305.833 41h3.334L310 146h-5l.833-105ZM309.599 0h1.8l3.76 33.09a7.735 7.735 0 0 1-5.56 8.31V0Z"/><path fill="#6FC025" d="m273.744 62.1-.9-1.56 26.777-19.8a7.735 7.735 0 0 1 9.977.66l-35.854 20.7Z"/><path fill="#6FC025" d="m345.451 62.1-.9 1.558-30.537-13.288a7.735 7.735 0 0 1-4.417-8.97l35.854 20.7ZM431.1 103.5l-12.6 35.1h25.2l-12.6-35.1ZM432.9 138.6h-3.6v7.2h3.6z"/><path fill="#9BD955" d="M994.505 202.359h17.805l-1.88-17.093h-19.486l3.561 17.093Z"/><path fill="#408A13" d="m936.103 143.957-13.533 13.532v23.148l7.123.356-2.137 21.367h17.093l3.562-17.094h3.561l-1.425 17.094h17.806l2.849-17.094h32.758l3.57 17.094h17.8l-6.41-58.403h-82.617Z"/><path fill="#9BD955" fill-rule="evenodd" d="M925.246 188.826a5.237 5.237 0 0 1-4.994-3.644l-3.549-11.154h-2.182a5.237 5.237 0 0 1-4.994-3.644l-2.109-6.628h7.91l-4.172-6.268h39.531l-4.172 6.268h7.91l-2.109 6.628a5.237 5.237 0 0 1-4.994 3.644h-2.182l-3.549 11.154a5.237 5.237 0 0 1-4.994 3.644h-11.351Zm-2.681-17.845c0 1.683 1.26 3.047 2.814 3.047 1.555 0 2.815-1.364 2.815-3.047s-1.26-3.047-2.815-3.047c-1.554 0-2.814 1.364-2.814 3.047Zm16.713 0c0 1.683-1.26 3.047-2.814 3.047-1.555 0-2.815-1.364-2.815-3.047s1.26-3.047 2.815-3.047c1.554 0 2.814 1.364 2.814 3.047Z" clip-rule="evenodd"/><path fill="#9BD955" d="m980.97 129 31.36 4.864a7.092 7.092 0 0 1 5.96 6.241l.43 3.852h-27.101c-5.881 0-10.649-4.768-10.649-10.649V129Z"/><path fill="#408A13" d="M999.352 185.264H973l.737 3.49a7.271 7.271 0 0 0 7.114 5.769h10.65a7.27 7.27 0 0 0 7.114-5.769l.737-3.49Z"/><path fill="#408A13" d="M981.546 193.811h3.562v2.508c0 .977-.788 1.764-1.765 1.764a1.8 1.8 0 0 1-1.797-1.797v-2.475ZM987.284 193.811h3.561v2.508a1.76 1.76 0 0 1-1.764 1.764 1.8 1.8 0 0 1-1.797-1.797v-2.475Z"/><path fill="#6FC025" d="M807 173.15a3.666 3.666 0 0 0 3.667 3.666h63.066c6.075 0 11-4.924 11-11v-8.8a3.666 3.666 0 0 0-3.666-3.666H818c-6.075 0-11 4.925-11 11v8.8Z"/><path fill="#408A13" d="M868.6 148.216a3.667 3.667 0 0 1-3.667 3.667h-37.4a3.667 3.667 0 0 1-3.667-3.667v-16.133a3.667 3.667 0 0 1 3.667-3.667h22.733c10.125 0 18.334 8.208 18.334 18.333v1.467ZM860.533 190.017c0-6.481-5.253-11.734-11.733-11.734h-5.867c-6.48 0-11.733 5.253-11.733 11.734 0 6.48 5.253 11.733 11.733 11.733h5.867c6.48 0 11.733-5.253 11.733-11.733Z"/><circle cx="846.235" cy="114.85" r="12.1" fill="#6FC025"/><path fill="#408A13" d="m842.201 115.216 4.4-7.333 4.4 7.333-4.4 7.333-4.4-7.333Z"/></svg>

<svg width="1440" height="203" viewBox="0 0 1440 203" fill="none" xmlns="http://www.w3.org/2000/svg">
<path d="M0 85L156.867 85C179.546 85 201.389 93.562 218.027 108.973L258 146H0L0 85Z" fill="#194D05"/>
<path d="M73 65L80 85H66L73 65Z" fill="#194D05"/>
<path d="M126 49.3184L138.6 84.9992H113.4L126 49.3184Z" fill="#194D05"/>
<path d="M108 42L120.6 77.6809H95.4004L108 42Z" fill="#194D05"/>
<rect x="106.201" y="77.6816" width="3.6" height="7.31915" fill="#194D05"/>
<path d="M0 146H494.026C514.33 146 534.037 152.865 549.946 165.481L596 202L0 202V146Z" fill="#2B6F0B"/>
<path d="M905.133 199.483V191L913 202H893V191L899.067 199.483V191L905.133 199.483Z" fill="#194D05"/>
<path d="M720.867 191L713 202H726.933V191L720.866 199.483L720.867 191Z" fill="#194D05"/>
<path d="M0 174H127.756C142.19 174 155.749 180.925 164.212 192.619L171 202L0 202V174Z" fill="#408A13"/>
<path d="M400.5 126L408 146H393L400.5 126Z" fill="#2B6F0B"/>
<path d="M1140 183L1147 202H1133L1140 183Z" fill="#194D05"/>
<path d="M156.599 110.733L143.999 145.999H169.199L156.599 110.733Z" fill="#2B6F0B"/>
<path d="M174.599 103.5L161.999 138.766H187.199L174.599 103.5Z" fill="#2B6F0B"/>
<rect width="3.6" height="7.23404" transform="matrix(-1 0 0 1 176.4 138.766)" fill="#2B6F0B"/>
<path d="M1325.7 139H1440V202H1325.7V139Z" fill="#194D05"/>
<path d="M1285.2 166L1325.7 139L1366.2 166V202H1285.2V166Z" fill="#2B6F0B"/>
<path d="M1301.4 178.6H1350V202H1301.4V178.6Z" fill="#194D05"/>
<path d="M1230.3 134.5C1230.3 122.074 1240.37 112 1252.8 112V112C1265.23 112 1275.3 122.074 1275.3 134.5V202H1230.3V134.5Z" fill="#2B6F0B"/>
<path d="M1154.7 160L1142.1 194.851H1167.3L1154.7 160Z" fill="#194D05"/>
<rect width="3.6" height="7.14894" transform="matrix(-1 0 0 1 1156.5 194.851)" fill="#194D05"/>
<path d="M1104.3 171.699L1096.2 194.87H1112.4L1104.3 171.699Z" fill="#194D05"/>
<rect width="3.6" height="7.1296" transform="matrix(-1 0 0 1 1106.1 194.871)" fill="#194D05"/>
<path d="M305.833 41H309.167L310 146H305L305.833 41Z" fill="#2B6F0B"/>
<path d="M309.6 0H311.4L315.16 33.0898C315.587 36.8465 313.235 40.3613 309.6 41.4V41.4V0Z" fill="#2B6F0B"/>
<path d="M273.744 62.0996L272.844 60.5408L299.621 40.7394C302.661 38.4914 306.88 38.7706 309.598 41.3996V41.3996L273.744 62.0996Z" fill="#2B6F0B"/>
<path d="M345.451 62.0996L344.551 63.6585L314.014 50.37C310.548 48.8613 308.68 45.0673 309.598 41.3996V41.3996L345.451 62.0996Z" fill="#2B6F0B"/>
<path d="M431.099 103.5L418.499 138.6H443.699L431.099 103.5Z" fill="#2B6F0B"/>
<rect width="3.6" height="7.2" transform="matrix(-1 0 0 1 432.9 138.6)" fill="#2B6F0B"/>
<path d="M994.505 202.359H1012.31L1010.43 185.266H990.943L994.505 202.359Z" fill="#2B6F0B"/>
<path d="M936.103 143.957L922.57 157.489V180.637L929.693 180.993L927.556 202.36H944.649L948.211 185.266H951.772L950.347 202.36H968.153L971.002 185.266H1003.76L1007.33 202.36H1025.13L1018.72 143.957H936.103Z" fill="#6FC025"/>
<path fill-rule="evenodd" clip-rule="evenodd" d="M925.246 188.827C922.963 188.827 920.942 187.353 920.252 185.183L916.703 174.029L914.521 174.029C912.238 174.029 910.217 172.555 909.527 170.385L907.418 163.757L915.328 163.757L911.156 157.489H950.687L946.515 163.757L954.425 163.757L952.316 170.385C951.626 172.555 949.605 174.029 947.322 174.029L945.14 174.029L941.591 185.183C940.901 187.353 938.88 188.827 936.597 188.827H925.246ZM922.565 170.982C922.565 172.665 923.825 174.029 925.379 174.029C926.934 174.029 928.194 172.665 928.194 170.982C928.194 169.299 926.934 167.935 925.379 167.935C923.825 167.935 922.565 169.299 922.565 170.982ZM939.278 170.982C939.278 172.665 938.018 174.029 936.464 174.029C934.909 174.029 933.649 172.665 933.649 170.982C933.649 169.299 934.909 167.935 936.464 167.935C938.018 167.935 939.278 169.299 939.278 170.982Z" fill="#2B6F0B"/>
<path d="M980.971 129L1012.33 133.864C1015.5 134.356 1017.95 136.915 1018.3 140.105L1018.72 143.957H991.62C985.738 143.957 980.971 139.189 980.971 133.308V129Z" fill="#2B6F0B"/>
<path d="M999.352 185.264L972.999 185.264L973.736 188.754C974.447 192.117 977.414 194.523 980.85 194.523L991.5 194.523C994.937 194.523 997.904 192.117 998.614 188.754L999.352 185.264Z" fill="#6FC025"/>
<path d="M981.545 193.811H985.106L985.106 196.319C985.106 197.296 984.319 198.083 983.342 198.083V198.083C982.352 198.083 981.545 197.276 981.545 196.286L981.545 193.811Z" fill="#6FC025"/>
<path d="M987.283 193.811H990.845L990.845 196.319C990.845 197.296 990.057 198.083 989.08 198.083V198.083C988.091 198.083 987.283 197.276 987.283 196.286L987.283 193.811Z" fill="#6FC025"/>
<path d="M807 173.15C807 175.175 808.642 176.816 810.667 176.816H873.733C879.808 176.816 884.733 171.892 884.733 165.816V157.016C884.733 154.991 883.092 153.35 881.067 153.35H818C811.925 153.35 807 158.275 807 164.35V173.15Z" fill="#6FC025"/>
<path d="M868.6 148.216C868.6 150.241 866.958 151.883 864.933 151.883H827.533C825.508 151.883 823.866 150.241 823.866 148.216V132.083C823.866 130.058 825.508 128.416 827.533 128.416H850.266C860.391 128.416 868.6 136.624 868.6 146.749V148.216Z" fill="#408A13"/>
<path d="M860.533 190.017C860.533 183.536 855.28 178.283 848.8 178.283H842.933C836.453 178.283 831.2 183.536 831.2 190.017V190.017C831.2 196.497 836.453 201.75 842.933 201.75H848.8C855.28 201.75 860.533 196.497 860.533 190.017V190.017Z" fill="#408A13"/>
<circle cx="846.235" cy="114.85" r="12.1" fill="#6FC025"/>
<path d="M842.201 115.217L846.601 107.884L851.001 115.217L846.601 122.55L842.201 115.217Z" fill="#2B6F0B"/>
</svg>
